static/graphsymbols/webpack.svg

<svg xmlns="http://www.w3.org/2000/svg" viewBox="0 0 1200 1200">
    <title>icon-square-big</title>
    <path fill="#FFF" d="M600 0l530.3 300v600L600 1200 69.7 900V300z"/>
    <path fill="#8ED6FB" class="st1" d="M1035.6 879.3l-418.1 236.5V931.6L878 788.3l157.6 91zm28.6-25.9V358.8l-153 88.3V765l153 88.4zm-901.5 25.9l418.1 236.5V931.6L320.3 788.3l-157.6 91zm-28.6-25.9V358.8l153 88.3V765l-153 88.4zM152 326.8L580.8 84.2v178.1L306.1 413.4l-2.1 1.2-152-87.8zm894.3 0L617.5 84.2v178.1l274.7 151.1 2.1 1.2 152-87.8z"/>
    <path fill="#1C78C0" d="M580.8 889.7l-257-141.3v-280l257 148.4v272.9zm36.7 0l257-141.3v-280l-257 148.4v272.9zm-18.3-283.6zM341.2 436l258-141.9 258 141.9-258 149-258-149z"/>
</svg>

<?xml version="1.0" encoding="UTF-8" standalone="no"?>
<!DOCTYPE svg PUBLIC "-//W3C//DTD SVG 1.1//EN" "http://www.w3.org/Graphics/SVG/1.1/DTD/svg11.dtd">
<svg width="100%" height="100%" viewBox="0 0 931 1032" version="1.1" xmlns="http://www.w3.org/2000/svg" xmlns:xlink="http://www.w3.org/1999/xlink" xml:space="preserve" xmlns:serif="http://www.serif.com/" style="fill-rule:evenodd;clip-rule:evenodd;stroke-linejoin:round;stroke-miterlimit:1.41421;">
    <rect x="0" y="0" width="930.1" height="1031.6" style="fill-opacity:0.01;"/>
    <g transform="matrix(1,0,0,1,-134.1,-84.2)">
        <path d="M1035.6,879.3L617.5,1115.8L617.5,931.6L878,788.3L1035.6,879.3ZM1064.2,853.4L1064.2,358.8L911.2,447.1L911.2,765L1064.2,853.4ZM162.7,879.3L580.8,1115.8L580.8,931.6L320.3,788.3L162.7,879.3ZM134.1,853.4L134.1,358.8L287.1,447.1L287.1,765L134.1,853.4ZM152,326.8L580.8,84.2L580.8,262.3L306.1,413.4L304,414.6L152,326.8ZM1046.3,326.8L617.5,84.2L617.5,262.3L892.2,413.4L894.3,414.6L1046.3,326.8Z" style="fill:white;fill-rule:nonzero;"/>
    </g>
    <g transform="matrix(1,0,0,1,-134.1,-84.2)">
        <path d="M580.8,889.7L323.8,748.4L323.8,468.4L580.8,616.8L580.8,889.7ZM617.5,889.7L874.5,748.4L874.5,468.4L617.5,616.8L617.5,889.7ZM341.2,436L599.2,294.1L857.2,436L599.2,585L341.2,436Z" style="fill:white;fill-rule:nonzero;"/>
    </g>
</svg>
